X:178
T:Gillian's Apples
T:Gillan's Apples
R:jig
H:A different 4-part version in D: #304
Z:id:hn-jig-178
M:6/8
K:G
~g3 B2A|GAG GBd|efe edB|dBA ABd|~g3 B2A|GBd g2a|bag fge|1 fdd def:|2 fdd d2e||
faa faa|faa afd|gbb gbb|gbb bag|faa faa|faa afa|bag fge|fdd d2e||
P:Version of 2nd part & variations
fda fda|fdf agf|geb geb|geg bag|fda fda|faa afa|bag fge|fdd def||

